X:87
T:Earl's Chair
Z: id:dc-reel-81
M:C
L:1/8
K:D Major
A|B2dA BAFA|B2dA BAFB|AFF2 DFF2|BAdA BDFA|!
B2dA BAFA|B2dA BAFB|A3B defd|edef d3:|!
f|e3f d3f|edef dBA2|e3f d3e|fedB ADFA|!
e2df eBB2|gBB2 defg|afbf afde|fedB ADF:|!

